X:8
T:8. Le colosse
N:from lieuxc_musique8.mid
Z:Eric Forgeot - http://anamnese.online.fr
M:4/4
L:1/8
Q:1/4=120
K:Ab % 4 flats
V:1
%%MIDI program 0
F/2=E/2 F/2=E/2 FC F/2=E/2 F/2=E/2 FC | AG F2 Ac A2 | G4 A>A c2 | dc A2 G4 |
F/2=E/2 F/2=E/2 FC F/2=E/2 F/2=E/2 FC | AG F2 Ac A2 | G4 A>A c2 | dc A2 G4 |
|: F/2=E/2 F/2=E/2 Fc A/2=E/2 A/2=E/2 AC | AG F2 Ac A2 | G4 A>A c2 | dc A2 G4 |
F/2=E/2 F/2=E/2 FC F/2=E/2 F/2=E/2 FC | AG F2 Ac A2 | G4 A>A c2 | dc A2 G4 :|
V:2
%%MIDI program 0
F,3 G, F,3 G, | A,2 C,4 A,2 | G,4 C,>C, F,2 | G,2 A,3/2C/2 _E,4 |
F,3 G, F,3 G, | A,2 C,4 A,2 | G,4 C,3/2 C,/2 F,2 | G,2 A,3/2C/2 E,4 |
|: F,3 F, A,3 G, | A,2 C,2 C,2 A,2 | =E,4 C,3/2 C,/2 F,2 | G,2 A,3/2 C/2 G,4 |
F,3 G, F,3 G, | A,2 C,4 A,2 | G,4 C,3/2 C,/2 F,2 | G,2 A,3/2 C/2 _E,4 :|
V:3
%%MIDI program 0
CC A2 CA C2 | C2 C2 =E,3/2 G,/2 F,2 | =E,3-=E,/2 G,/2 A,2 A,2 | =E,2 =E,3/2 C,/2 _E,4 |
CC A2 CA C2 | C2 C2 =E,3/2 G,/2 F,2 | =E,3-=E,/2 G,/2 A,2 A,2 | =E,2 =E,3/2 C,/2 _E,4 |
|: CC, C,2 A,A, F,2 | C2 CF =E,3/2 G,/2 F,2 | =E,3-=E,/2 G,/2 A,2 A,2 | =E,2 =E,3/2 C,/2 G,4 |
CC A2 CA C2 | C2 C2 =E,3/2 G,/2 F,2 | =E,3-=E,/2 G,/2 A,2 A,2 | =E,2 =E,3/2 C,/2 _E,4 :|

%%MIDI program 0

%%MIDI program 0

%%MIDI program 10  %percu


